X:28
T:Polka du Cabretaire
C:trad
A:Limousin
O:France
M:2/4
L:1/8
Q:1/4=120
K:C
Gc e/2f/2e/2d/2|ce g2|e/2c/2e/2g/2 f/2e/2d/2c/2|1B/2c/2d/2f/2 ec:|2B/2c/2d/2B/2 c2|
|:Gc e/2f/2e/2d/2|cB A2|G/2B/2d/2e/2 f/2e/2d/2c/2|1B/2c/2d/2f/2 ec:|2B/2c/2d/2B/2 c2||
